svgs/1F3B5.svg

<svg xmlns="http://www.w3.org/2000/svg" xmlns:xlink="http://www.w3.org/1999/xlink" preserveAspectRatio="none" viewBox="0 0 72 72"><defs><path id="a" fill="#37B4E2" d="M67.4 7.1q0-3.5-3.4-3.8l-35.1.4q-1.15-.15-1.95.1l-.05-.05q-1.05 0-1.8.65-.55.75-.5 1.7l2.1 38.75q-3.75-2.25-8.6-2.1-3.9 0-7.55 1.6-3.65 1.7-5.9 4.45-1.8 2.1-2.35 4.3-.3 1.35-.45 2.8-.1 1.65.3 2.85.75 2.6 2.4 4.75 1.75 2.25 4.2 3.55 1.45.75 2.9 1.2 3.85 1 8-.3 3.7-1.15 6.7-3.95 2.35-2.05 3.85-4.9 1.7-3.15 1.65-6.05l.1-.65-2.2-35.25 33.75-.35 1.45 27.6q-3.75-2.25-8.55-2.1-3.9 0-7.55 1.6-3.7 1.7-5.9 4.45-1.85 2.1-2.4 4.3-.3 1.35-.4 2.8-.15 1.65.3 2.85.7 2.6 2.4 4.75 1.75 2.25 4.2 3.55 1.45.75 2.85 1.2 3.85 1 8.05-.3 3.65-1.15 6.7-3.95 2.35-2.05 3.8-4.9 1.7-3.15 1.65-6.05l.1-.65L67.4 7.1z"/></defs><use xlink:href="#a"/></svg>

<svg xmlns="http://www.w3.org/2000/svg" version="1.1" xmlns:xlink="http://www.w3.org/1999/xlink" preserveAspectRatio="none" x="0px" y="0px" width="72px" height="72px" viewBox="0 0 72 72">
<defs>
<g id="Layer0_0_FILL">
<path fill="#37B4E2" stroke="none" d="
M 67.4 7.1
Q 67.4 3.6 64 3.3
L 28.9 3.7
Q 27.75 3.55 26.95 3.8
L 26.9 3.75
Q 25.85 3.75 25.1 4.4 24.55 5.15 24.6 6.1
L 26.7 44.85
Q 22.95 42.6 18.1 42.75 14.2 42.75 10.55 44.35 6.9 46.05 4.65 48.8 2.85 50.9 2.3 53.1 2 54.45 1.85 55.9 1.75 57.55 2.15 58.75 2.9 61.35 4.55 63.5 6.3 65.75 8.75 67.05 10.2 67.8 11.65 68.25 15.5 69.25 19.65 67.95 23.35 66.8 26.35 64 28.7 61.95 30.2 59.1 31.9 55.95 31.85 53.05
L 31.95 52.4 29.75 17.15 63.5 16.8 64.95 44.4
Q 61.2 42.15 56.4 42.3 52.5 42.3 48.85 43.9 45.15 45.6 42.95 48.35 41.1 50.45 40.55 52.65 40.25 54 40.15 55.45 40 57.1 40.45 58.3 41.15 60.9 42.85 63.05 44.6 65.3 47.05 66.6 48.5 67.35 49.9 67.8 53.75 68.8 57.95 67.5 61.6 66.35 64.65 63.55 67 61.5 68.45 58.65 70.15 55.5 70.1 52.6
L 70.2 51.95 67.4 7.1 Z"/>
</g>
</defs>

<g id="Layer_1">
<g transform="matrix( 1, 0, 0, 1, 0,0) ">
<use xlink:href="#Layer0_0_FILL"/>
</g>
</g>
</svg>
